jinttai/CVAE_dog/results_rmat/opt_nn_lbfgs/q_traj.csv
t,J1,J2,J3,J4,J5,J6
0.000000000000000000e+00,0.000000000000000000e+00,0.000000000000000000e+00,0.000000000000000000e+00,0.000000000000000000e+00,0.000000000000000000e+00,0.000000000000000000e+00
1.010101010101010083e-01,1.235104072839021683e-02,2.628260757774114609e-03,-1.111586671322584152e-02,1.142221130430698395e-02,-6.473700050264596939e-03,-8.804625831544399261e-03
2.020202020202020166e-01,4.799260944128036499e-02,1.021266914904117584e-02,-4.319307953119277954e-02,4.438344761729240417e-02,-2.515494823455810547e-02,-3.421225771307945251e-02
3.030303030303030387e-01,1.048073843121528625e-01,2.230266667902469635e-02,-9.432605654001235962e-02,9.692560881376266479e-02,-5.493396148085594177e-02,-7.471352815628051758e-02
4.040404040404040331e-01,1.806780695915222168e-01,3.844769671559333801e-02,-1.626092344522476196e-01,1.670906245708465576e-01,-9.470098465681076050e-02,-1.287990957498550415e-01
5.050505050505050830e-01,2.734872996807098389e-01,5.819720029830932617e-02,-2.461370378732681274e-01,2.529203891754150391e-01,-1.433462202548980713e-01,-1.949595659971237183e-01
6.060606060606060774e-01,3.811177611351013184e-01,8.110060542821884155e-02,-3.430038392543792725e-01,3.524567484855651855e-01,-1.997598707675933838e-01,-2.716855406761169434e-01
7.070707070707070718e-01,5.014522075653076172e-01,1.067073717713356018e-01,-4.513041377067565918e-01,4.637417197227478027e-01,-2.628321945667266846e-01,-3.574677705764770508e-01
8.080808080808080662e-01,6.323732137680053711e-01,1.345669329166412354e-01,-5.691323280334472656e-01,5.848171710968017578e-01,-3.314534425735473633e-01,-4.507968127727508545e-01
9.090909090909090606e-01,7.717634439468383789e-01,1.642287224531173706e-01,-6.945827603340148926e-01,7.137249112129211426e-01,-4.045137166976928711e-01,-5.501632690429687500e-01
1.010101010101010166e+00,9.175058007240295410e-01,1.952422112226486206e-01,-8.257499933242797852e-01,8.485070466995239258e-01,-4.809034168720245361e-01,-6.540578603744506836e-01
1.111111111111111160e+00,1.067482590675354004e+00,2.271567732095718384e-01,-9.607282876968383789e-01,9.872052073478698730e-01,-5.595125555992126465e-01,-7.609710693359375000e-01
1.212121212121212155e+00,1.219576835632324219e+00,2.595219314098358154e-01,-1.097612261772155762e+00,1.127861618995666504e+00,-6.392315626144409180e-01,-8.693937659263610840e-01
1.313131313131313149e+00,1.371670961380004883e+00,2.918870449066162109e-01,-1.234496116638183594e+00,1.268517851829528809e+00,-7.189505100250244141e-01,-9.778163433074951172e-01
1.414141414141414144e+00,1.521647930145263672e+00,3.238016664981842041e-01,-1.369474530220031738e+00,1.407216191291809082e+00,-7.975597381591796875e-01,-1.084729671478271484e+00
1.515151515151515138e+00,1.667390227317810059e+00,3.548151552677154541e-01,-1.500641822814941406e+00,1.541998267173767090e+00,-8.739494085311889648e-01,-1.188624262809753418e+00
1.616161616161616132e+00,1.806780338287353516e+00,3.844769001007080078e-01,-1.626092076301574707e+00,1.670905947685241699e+00,-9.470096230506896973e-01,-1.287990570068359375e+00
1.717171717171717127e+00,1.937701582908630371e+00,4.123364984989166260e-01,-1.743920445442199707e+00,1.791981577873229980e+00,-1.015630960464477539e+00,-1.381319880485534668e+00
1.818181818181818121e+00,2.058035850524902344e+00,4.379432499408721924e-01,-1.852220654487609863e+00,1.903266429901123047e+00,-1.078703284263610840e+00,-1.467101931571960449e+00
1.919191919191919116e+00,2.165666341781616211e+00,4.608466327190399170e-01,-1.949087381362915039e+00,2.002802848815917969e+00,-1.135116815567016602e+00,-1.543827891349792480e+00
2.020202020202020332e+00,2.258475542068481445e+00,4.805961549282073975e-01,-2.032615184783935547e+00,2.088632583618164062e+00,-1.183762192726135254e+00,-1.609988451004028320e+00
2.121212121212121104e+00,2.334346294403076172e+00,4.967412054538726807e-01,-2.100898504257202148e+00,2.158797740936279297e+00,-1.223529219627380371e+00,-1.664074063301086426e+00
2.222222222222222321e+00,2.391160964965820312e+00,5.088311433792114258e-01,-2.152031421661376953e+00,2.211339712142944336e+00,-1.253308176994323730e+00,-1.704575181007385254e+00
2.323232323232323093e+00,2.426802635192871094e+00,5.164155960083007812e-01,-2.184108734130859375e+00,2.244301080703735352e+00,-1.271989464759826660e+00,-1.729982972145080566e+00
2.424242424242424310e+00,2.439153671264648438e+00,5.190438628196716309e-01,-2.195224523544311523e+00,2.255723237991333008e+00,-1.278463125228881836e+00,-1.738787531852722168e+00
2.525252525252525082e+00,2.439153671264648438e+00,5.190438628196716309e-01,-2.195224523544311523e+00,2.255723237991333008e+00,-1.278463125228881836e+00,-1.738787531852722168e+00
2.626262626262626299e+00,2.439156055450439453e+00,5.120036602020263672e-01,-2.172894954681396484e+00,2.250445604324340820e+00,-1.266475796699523926e+00,-1.742093563079833984e+00
2.727272727272727071e+00,2.439162969589233398e+00,4.916876256465911865e-01,-2.108458518981933594e+00,2.235215663909912109e+00,-1.231884002685546875e+00,-1.751633763313293457e+00
2.828282828282828287e+00,2.439173936843872070e+00,4.593026936054229736e-01,-2.005742788314819336e+00,2.210938215255737305e+00,-1.176742434501647949e+00,-1.766841411590576172e+00
2.929292929292929060e+00,2.439188718795776367e+00,4.160557389259338379e-01,-1.868575692176818848e+00,2.178518056869506836e+00,-1.103106260299682617e+00,-1.787149786949157715e+00
3.030303030303030276e+00,2.439206838607788086e+00,3.631536066532135010e-01,-1.700785398483276367e+00,2.138859987258911133e+00,-1.013030409812927246e+00,-1.811992049217224121e+00
3.131313131313131048e+00,2.439227819442749023e+00,3.018032908439636230e-01,-1.506199717521667480e+00,2.092868804931640625e+00,-9.085698127746582031e-01,-1.840801596641540527e+00
3.232323232323232265e+00,2.439251184463500977e+00,2.332115769386291504e-01,-1.288646459579467773e+00,2.041449069976806641e+00,-7.917794585227966309e-01,-1.873011589050292969e+00
3.333333333333333481e+00,2.439276695251464844e+00,1.585853695869445801e-01,-1.051953673362731934e+00,1.985505461692810059e+00,-6.647142171859741211e-01,-1.908055305480957031e+00
3.434343434343434254e+00,2.439303636550903320e+00,7.913169264793395996e-02,-7.999494075775146484e-01,1.925942897796630859e+00,-5.294292569160461426e-01,-1.945365905761718750e+00
3.535353535353535470e+00,2.439332008361816406e+00,-3.942787647247314453e-03,-5.364611148834228516e-01,1.863666176795959473e+00,-3.879792690277099609e-01,-1.984376907348632812e+00
3.636363636363636243e+00,2.439361095428466797e+00,-8.943086862564086914e-02,-2.653172016143798828e-01,1.799579977989196777e+00,-2.424194812774658203e-01,-2.024521350860595703e+00
3.737373737373737459e+00,2.439390659332275391e+00,-1.761260032653808594e-01,9.654760360717773438e-03,1.734588861465454102e+00,-9.480464458465576172e-02,-2.065232515335083008e+00
3.838383838383838231e+00,2.439420461654663086e+00,-2.628210186958312988e-01,2.846264839172363281e-01,1.669597983360290527e+00,5.281007289886474609e-02,-2.105943679809570312e+00
3.939393939393939448e+00,2.439449548721313477e+00,-3.483092784881591797e-01,5.557706356048583984e-01,1.605511665344238281e+00,1.983699798583984375e-01,-2.146088123321533203e+00
4.040404040404040664e+00,2.439477920532226562e+00,-4.313836693763732910e-01,8.192589282989501953e-01,1.543234825134277344e+00,3.398199081420898438e-01,-2.185098886489868164e+00
4.141414141414140992e+00,2.439504861831665039e+00,-5.108372569084167480e-01,1.071262836456298828e+00,1.483672499656677246e+00,4.751048088073730469e-01,-2.222409486770629883e+00
4.242424242424242209e+00,2.439530372619628906e+00,-5.854635834693908691e-01,1.307956218719482422e+00,1.427728891372680664e+00,6.021702289581298828e-01,-2.257453441619873047e+00
4.343434343434343425e+00,2.439553737640380859e+00,-6.540552973747253418e-01,1.525509357452392578e+00,1.376309156417846680e+00,7.189605236053466797e-01,-2.289663314819335938e+00
4.444444444444444642e+00,2.439574718475341797e+00,-7.154055237770080566e-01,1.720094680786132812e+00,1.330317854881286621e+00,8.234210014343261719e-01,-2.318472862243652344e+00
4.545454545454544970e+00,2.439592838287353516e+00,-7.683077454566955566e-01,1.887885332107543945e+00,1.290659666061401367e+00,9.134969711303710938e-01,-2.343315124511718750e+00
4.646464646464646187e+00,2.439607620239257812e+00,-8.115547299385070801e-01,2.025052309036254883e+00,1.258239507675170898e+00,9.871332645416259766e-01,-2.363623619079589844e+00
4.747474747474747403e+00,2.439618587493896484e+00,-8.439396023750305176e-01,2.127767801284790039e+00,1.233962297439575195e+00,1.042274475097656250e+00,-2.378831148147583008e+00
4.848484848484848619e+00,2.439625501632690430e+00,-8.642557263374328613e-01,2.192204713821411133e+00,1.218732237815856934e+00,1.076866626739501953e+00,-2.388371467590332031e+00
4.949494949494949836e+00,2.439627885818481445e+00,-8.712958693504333496e-01,2.214534044265747070e+00,1.213454604148864746e+00,1.088853836059570312e+00,-2.391677379608154297e+00
5.050505050505050164e+00,2.439627885818481445e+00,-8.712958693504333496e-01,2.214533805847167969e+00,1.213454604148864746e+00,1.088853836059570312e+00,-2.391677379608154297e+00
5.151515151515151381e+00,2.414934158325195312e+00,-8.646107912063598633e-01,2.203741550445556641e+00,1.195021748542785645e+00,1.070990443229675293e+00,-2.372418403625488281e+00
5.252525252525252597e+00,2.343674659729003906e+00,-8.453194499015808105e-01,2.172598600387573242e+00,1.141829848289489746e+00,1.019441843032836914e+00,-2.316842079162597656e+00
5.353535353535353813e+00,2.230082988739013672e+00,-8.145679831504821777e-01,2.122954607009887695e+00,1.057038784027099609e+00,9.372702836990356445e-01,-2.228250265121459961e+00
5.454545454545454142e+00,2.078392505645751953e+00,-7.735023498535156250e-01,2.056659936904907227e+00,9.438084363937377930e-01,8.275380730628967285e-01,-2.109944581985473633e+00
5.555555555555555358e+00,1.892835855484008789e+00,-7.232685685157775879e-01,1.975564479827880859e+00,8.052988052368164062e-01,6.933075189590454102e-01,-1.965226292610168457e+00
5.656565656565656575e+00,1.677646875381469727e+00,-6.650127172470092773e-01,1.881518483161926270e+00,6.446697711944580078e-01,5.376409292221069336e-01,-1.797397255897521973e+00
5.757575757575757791e+00,1.437058448791503906e+00,-5.998806953430175781e-01,1.776371955871582031e+00,4.650812149047851562e-01,3.636005520820617676e-01,-1.609758853912353516e+00
5.858585858585858119e+00,1.175303697586059570e+00,-5.290185809135437012e-01,1.661974906921386719e+00,2.696930170059204102e-01,1.742486953735351562e-01,-1.405612468719482422e+00
5.959595959595959336e+00,8.966163396835327148e-01,-4.535724520683288574e-01,1.540177702903747559e+00,6.166529655456542969e-02,-2.735221385955810547e-02,-1.188260078430175781e+00
6.060606060606060552e+00,6.052290201187133789e-01,-3.746882081031799316e-01,1.412830114364624023e+00,-1.558423042297363281e-01,-2.381402254104614258e-01,-9.610028266906738281e-01
6.161616161616161769e+00,3.053755760192871094e-01,-2.935120463371276855e-01,1.281782507896423340e+00,-3.796695470809936523e-01,-4.550524950027465820e-01,-7.271428108215332031e-01
6.262626262626262097e+00,1.288652420043945312e-03,-2.111897468566894531e-01,1.148884654045104980e+00,-6.066569089889526367e-01,-6.750273704528808594e-01,-4.899809360504150391e-01
6.363636363636363313e+00,-3.027980327606201172e-01,-1.288675665855407715e-01,1.015986919403076172e+00,-8.336440324783325195e-01,-8.950020074844360352e-01,-2.528192996978759766e-01
6.464646464646464530e+00,-6.026518344879150391e-01,-4.769122600555419922e-02,8.849391937255859375e-01,-1.057471632957458496e+00,-1.111914634704589844e+00,-1.895880699157714844e-02
6.565656565656565746e+00,-8.940389156341552734e-01,3.119295835494995117e-02,7.575916051864624023e-01,-1.274978995323181152e+00,-1.322702407836914062e+00,2.082982063293457031e-01
6.666666666666666963e+00,-1.172726154327392578e+00,1.066390275955200195e-01,6.357945203781127930e-01,-1.483006596565246582e+00,-1.524303197860717773e+00,4.256503582000732422e-01
6.767676767676767291e+00,-1.434481143951416016e+00,1.775012612342834473e-01,5.213973522186279297e-01,-1.678395152091979980e+00,-1.713655471801757812e+00,6.297969818115234375e-01
6.868686868686868507e+00,-1.675069570541381836e+00,2.426331639289855957e-01,4.162508249282836914e-01,-1.857983469963073730e+00,-1.887695789337158203e+00,8.174352645874023438e-01
6.969696969696969724e+00,-1.890258550643920898e+00,3.008890748023986816e-01,3.222049474716186523e-01,-2.018612384796142578e+00,-2.043362140655517578e+00,9.852643013000488281e-01
7.070707070707070940e+00,-2.075814962387084961e+00,3.511227965354919434e-01,2.411094903945922852e-01,-2.157122135162353516e+00,-2.177592754364013672e+00,1.129982709884643555e+00
7.171717171717171269e+00,-2.227505922317504883e+00,3.921884894371032715e-01,1.748147010803222656e-01,-2.270352363586425781e+00,-2.287325143814086914e+00,1.248288393020629883e+00
7.272727272727272485e+00,-2.341097116470336914e+00,4.229399561882019043e-01,1.251709461212158203e-01,-2.355143547058105469e+00,-2.369496345520019531e+00,1.336879968643188477e+00
7.373737373737373701e+00,-2.412356615066528320e+00,4.422312378883361816e-01,9.402775764465332031e-02,-2.408335685729980469e+00,-2.421045303344726562e+00,1.392456531524658203e+00
7.474747474747474918e+00,-2.437050580978393555e+00,4.489163756370544434e-01,8.323550224304199219e-02,-2.426768302917480469e+00,-2.438908576965332031e+00,1.411715507507324219e+00
7.575757575757575246e+00,-2.437050819396972656e+00,4.489164054393768311e-01,8.323548734188079834e-02,-2.426768541336059570e+00,-2.438908576965332031e+00,1.411715507507324219e+00
7.676767676767676463e+00,-2.424710512161254883e+00,4.466432332992553711e-01,8.281400799751281738e-02,-2.414480209350585938e+00,-2.426558732986450195e+00,1.404567003250122070e+00
7.777777777777777679e+00,-2.389099597930908203e+00,4.400835633277893066e-01,8.159775286912918091e-02,-2.379019737243652344e+00,-2.390920877456665039e+00,1.383938670158386230e+00
7.878787878787878896e+00,-2.332333803176879883e+00,4.296270310878753662e-01,7.965896278619766235e-02,-2.322493314743041992e+00,-2.334111690521240234e+00,1.351055860519409180e+00
7.979797979797979224e+00,-2.256528615951538086e+00,4.156633317470550537e-01,7.706989347934722900e-02,-2.247007846832275391e+00,-2.258248567581176758e+00,1.307143926620483398e+00
8.080808080808081328e+00,-2.163799285888671875e+00,3.985821604728698730e-01,7.390280067920684814e-02,-2.154670000076293945e+00,-2.165448665618896484e+00,1.253428459167480469e+00
8.181818181818181657e+00,-2.056261539459228516e+00,3.787732124328613281e-01,7.022994011640548706e-02,-2.047585964202880859e+00,-2.057829141616821289e+00,1.191134929656982422e+00
8.282828282828281985e+00,-1.936030983924865723e+00,3.566261529922485352e-01,6.612356007099151611e-02,-1.927862524986267090e+00,-1.937506794929504395e+00,1.121488690376281738e+00
8.383838383838384090e+00,-1.805222749710083008e+00,3.325306773185729980e-01,6.165591627359390259e-02,-1.797606229782104492e+00,-1.806598901748657227e+00,1.045715093612670898e+00
8.484848484848484418e+00,-1.665952682495117188e+00,3.068764507770538330e-01,5.689925700426101685e-02,-1.658923864364624023e+00,-1.667222738265991211e+00,9.650399088859558105e-01
8.585858585858586522e+00,-1.520336031913757324e+00,2.800531685352325439e-01,5.192584171891212463e-02,-1.513921499252319336e+00,-1.521494984626770020e+00,8.806882500648498535e-01
8.686868686868686851e+00,-1.370488524436950684e+00,2.524505257606506348e-01,4.680792242288589478e-02,-1.364706277847290039e+00,-1.371533274650573730e+00,7.938857674598693848e-01
8.787878787878787179e+00,-1.218525409698486328e+00,2.244582027196884155e-01,4.161774367094039917e-02,-1.213384270668029785e+00,-1.219454288482666016e+00,7.058577537536621094e-01
8.888888888888889284e+00,-1.066562414169311523e+00,1.964659094810485840e-01,3.642757236957550049e-02,-1.062062382698059082e+00,-1.067375421524047852e+00,6.178298592567443848e-01
8.989898989898989612e+00,-9.167146682739257812e-01,1.688632369041442871e-01,3.130964562296867371e-02,-9.128469228744506836e-01,-9.174134731292724609e-01,5.310272574424743652e-01
9.090909090909089940e+00,-7.710981369018554688e-01,1.420399546623229980e-01,2.633622661232948303e-02,-7.678446769714355469e-01,-7.716859579086303711e-01,4.466755986213684082e-01
9.191919191919192045e+00,-6.318281888961791992e-01,1.163857579231262207e-01,2.157957851886749268e-02,-6.291624307632446289e-01,-6.323097944259643555e-01,3.660004138946533203e-01
9.292929292929292373e+00,-5.010198354721069336e-01,9.229025244712829590e-02,1.711191982030868530e-02,-4.989058971405029297e-01,-5.014016628265380859e-01,2.902268171310424805e-01
9.393939393939394478e+00,-3.807892799377441406e-01,7.014319300651550293e-02,1.300554722547531128e-02,-3.791825771331787109e-01,-3.810794353485107422e-01,2.205805778503417969e-01
9.494949494949494806e+00,-2.732517719268798828e-01,5.033427476882934570e-02,9.332686662673950195e-03,-2.720987796783447266e-01,-2.734599113464355469e-01,1.582870483398437500e-01
9.595959595959595134e+00,-1.805222034454345703e-01,3.325307369232177734e-02,6.165593862533569336e-03,-1.797606945037841797e-01,-1.806600093841552734e-01,1.045715808868408203e-01
9.696969696969697239e+00,-1.047170162200927734e-01,1.928937435150146484e-02,3.576524555683135986e-03,-1.042752265930175781e-01,-1.047968864440917969e-01,6.065964698791503906e-02
9.797979797979797567e+00,-4.795122146606445312e-02,8.832871913909912109e-03,1.637741923332214355e-03,-4.774904251098632812e-02,-4.798793792724609375e-02,2.777683734893798828e-02
9.898989898989899672e+00,-1.234030723571777344e-02,2.273142337799072266e-03,4.214793443679809570e-04,-1.228833198547363281e-02,-1.234984397888183594e-02,7.148385047912597656e-03
1.000000000000000000e+01,0.000000000000000000e+00,0.000000000000000000e+00,0.000000000000000000e+00,0.000000000000000000e+00,0.000000000000000000e+00,0.000000000000000000e+00
