jinttai/CVAE_dog/outputs/results/opt_nn_lbfgs/q_traj_mlp.csv
t,J1,J2,J3,J4,J5,J6
0.000000000000000000e+00,0.000000000000000000e+00,0.000000000000000000e+00,0.000000000000000000e+00,0.000000000000000000e+00,0.000000000000000000e+00,0.000000000000000000e+00
1.010101010101010083e-01,-1.062518730759620667e-02,-8.810414001345634460e-03,-2.646713517606258392e-03,-4.618897568434476852e-03,1.202831510454416275e-02,8.387831971049308777e-03
2.020202020202020166e-01,-4.128643870353698730e-02,-3.423474729061126709e-02,-1.028437167406082153e-02,-1.794771477580070496e-02,4.673859477043151855e-02,3.259271755814552307e-02
3.030303030303030387e-01,-9.016229212284088135e-02,-7.476264238357543945e-02,-2.245925180613994598e-02,-3.919463604688644409e-02,1.020688340067863464e-01,7.117673754692077637e-02
4.040404040404040331e-01,-1.554313004016876221e-01,-1.288837641477584839e-01,-3.871763497591018677e-02,-6.756787002086639404e-02,1.759570688009262085e-01,1.227019950747489929e-01
5.050505050505050830e-01,-2.352719902992248535e-01,-1.950877308845520020e-01,-5.860579758882522583e-02,-1.022755801677703857e-01,2.663412690162658691e-01,1.857305616140365601e-01
6.060606060606060774e-01,-3.278628587722778320e-01,-2.718641757965087891e-01,-8.167000114917755127e-02,-1.425259560346603394e-01,3.711593747138977051e-01,2.588244974613189697e-01
7.070707070707070718e-01,-4.313825666904449463e-01,-3.577027618885040283e-01,-1.074565574526786804e-01,-1.875272095203399658e-01,4.883495569229125977e-01,3.405459225177764893e-01
8.080808080808080662e-01,-5.440095663070678711e-01,-4.510931670665740967e-01,-1.355117261409759521e-01,-2.364875376224517822e-01,6.158497333526611328e-01,4.294569790363311768e-01
9.090909090909090606e-01,-6.639223098754882812e-01,-5.505249500274658203e-01,-1.653817594051361084e-01,-2.886150479316711426e-01,7.515977621078491211e-01,5.241196155548095703e-01
1.010101010101010166e+00,-7.892995476722717285e-01,-6.544878482818603516e-01,-1.966129839420318604e-01,-3.431180715560913086e-01,8.935319185256958008e-01,6.230960488319396973e-01
1.111111111111111160e+00,-9.183195829391479492e-01,-7.614713311195373535e-01,-2.287516295909881592e-01,-3.992046415805816650e-01,1.039589881896972656e+00,7.249482274055480957e-01
1.212121212121212155e+00,-1.049161195755004883e+00,-8.699653148651123047e-01,-2.613440155982971191e-01,-4.560830593109130859e-01,1.187710046768188477e+00,8.282383680343627930e-01
1.313131313131313149e+00,-1.180002689361572266e+00,-9.784591794013977051e-01,-2.939363718032836914e-01,-5.129614472389221191e-01,1.335829973220825195e+00,9.315284490585327148e-01
1.414141414141414144e+00,-1.309022903442382812e+00,-1.085442900657653809e+00,-3.260750472545623779e-01,-5.690481066703796387e-01,1.481888294219970703e+00,1.033380746841430664e+00
1.515151515151515138e+00,-1.434400081634521484e+00,-1.189405679702758789e+00,-3.573062717914581299e-01,-6.235510706901550293e-01,1.623822331428527832e+00,1.132357120513916016e+00
1.616161616161616132e+00,-1.554312705993652344e+00,-1.288837313652038574e+00,-3.871762752532958984e-01,-6.756785511970520020e-01,1.759570240974426270e+00,1.227019667625427246e+00
1.717171717171717127e+00,-1.666939854621887207e+00,-1.382227897644042969e+00,-4.152314960956573486e-01,-7.246389389038085938e-01,1.887070655822753906e+00,1.315930843353271484e+00
1.818181818181818121e+00,-1.770459532737731934e+00,-1.468066453933715820e+00,-4.410180151462554932e-01,-7.696401476860046387e-01,2.004260778427124023e+00,1.397652268409729004e+00
1.919191919191919116e+00,-1.863050580024719238e+00,-1.544842958450317383e+00,-4.640822708606719971e-01,-8.098906278610229492e-01,2.109078884124755859e+00,1.470746278762817383e+00
2.020202020202020332e+00,-1.942891120910644531e+00,-1.611046910285949707e+00,-4.839704036712646484e-01,-8.445982336997985840e-01,2.199463129043579102e+00,1.533774733543395996e+00
2.121212121212121104e+00,-2.008160114288330078e+00,-1.665167927742004395e+00,-5.002287626266479492e-01,-8.729714751243591309e-01,2.273351192474365234e+00,1.585299968719482422e+00
2.222222222222222321e+00,-2.057035923004150391e+00,-1.705695748329162598e+00,-5.124036073684692383e-01,-8.942183852195739746e-01,2.328681468963623047e+00,1.623883962631225586e+00
2.323232323232323093e+00,-2.087697267532348633e+00,-1.731120228767395020e+00,-5.200413465499877930e-01,-9.075472354888916016e-01,2.363391876220703125e+00,1.648088932037353516e+00
2.424242424242424310e+00,-2.098322391510009766e+00,-1.739930629730224609e+00,-5.226880311965942383e-01,-9.121661186218261719e-01,2.375420093536376953e+00,1.656476736068725586e+00
2.525252525252525082e+00,-2.098322391510009766e+00,-1.739930629730224609e+00,-5.226880311965942383e-01,-9.121661186218261719e-01,2.375420093536376953e+00,1.656476736068725586e+00
2.626262626262626299e+00,-2.080415964126586914e+00,-1.723420143127441406e+00,-5.077762603759765625e-01,-8.965432643890380859e-01,2.371766090393066406e+00,1.660319685935974121e+00
2.727272727272727071e+00,-2.028742790222167969e+00,-1.675775527954101562e+00,-4.647451341152191162e-01,-8.514602184295654297e-01,2.361222028732299805e+00,1.671409249305725098e+00
2.828282828282828287e+00,-1.946372866630554199e+00,-1.599827170372009277e+00,-3.961510062217712402e-01,-7.795951366424560547e-01,2.344414234161376953e+00,1.689086794853210449e+00
2.929292929292929060e+00,-1.836375832557678223e+00,-1.498405456542968750e+00,-3.045501112937927246e-01,-6.836261749267578125e-01,2.321968793869018555e+00,1.712693452835083008e+00
3.030303030303030276e+00,-1.701821208000183105e+00,-1.374340772628784180e+00,-1.924987733364105225e-01,-5.662316083908081055e-01,2.294512271881103516e+00,1.741570353507995605e+00
3.131313131313131048e+00,-1.545778870582580566e+00,-1.230463504791259766e+00,-6.255334615707397461e-02,-4.300897121429443359e-01,2.262671232223510742e+00,1.775058746337890625e+00
3.232323232323232265e+00,-1.371318340301513672e+00,-1.069603919982910156e+00,8.272993564605712891e-02,-2.778785228729248047e-01,2.227071762084960938e+00,1.812500000000000000e+00
3.333333333333333481e+00,-1.181509256362915039e+00,-8.945924043655395508e-01,2.407947778701782227e-01,-1.122763156890869141e-01,2.188340425491333008e+00,1.853235125541687012e+00
3.434343434343434254e+00,-9.794217348098754883e-01,-7.082595825195312500e-01,4.090846776962280273e-01,6.403863430023193359e-02,2.147103548049926758e+00,1.896605372428894043e+00
3.535353535353535470e+00,-7.681248188018798828e-01,-5.134354829788208008e-01,5.850436687469482422e-01,2.483882904052734375e-01,2.103987455368041992e+00,1.941951990127563477e+00
3.636363636363636243e+00,-5.506888628005981445e-01,-3.129508495330810547e-01,7.661150693893432617e-01,4.380941390991210938e-01,2.059618711471557617e+00,1.988616228103637695e+00
3.737373737373737459e+00,-3.301830291748046875e-01,-1.096355915069580078e-01,9.497429132461547852e-01,6.304783821105957031e-01,2.014623641967773438e+00,2.035939216613769531e+00
3.838383838383838231e+00,-1.096774339675903320e-01,9.367942810058593750e-02,1.133370637893676758e+00,8.228623867034912109e-01,1.969628453254699707e+00,2.083262205123901367e+00
3.939393939393939448e+00,1.077589988708496094e-01,2.941644191741943359e-01,1.314442276954650879e+00,1.012568593025207520e+00,1.925259590148925781e+00,2.129926443099975586e+00
4.040404040404040664e+00,3.190555572509765625e-01,4.889883995056152344e-01,1.490401148796081543e+00,1.196918249130249023e+00,1.882143616676330566e+00,2.175273180007934570e+00
4.141414141414140992e+00,5.211429595947265625e-01,6.753211021423339844e-01,1.658690810203552246e+00,1.373232841491699219e+00,1.840906858444213867e+00,2.218643188476562500e+00
4.242424242424242209e+00,7.109522819519042969e-01,8.503327369689941406e-01,1.816755890846252441e+00,1.538835287094116211e+00,1.802175402641296387e+00,2.259378433227539062e+00
4.343434343434343425e+00,8.854126930236816406e-01,1.011192321777343750e+00,1.962039113044738770e+00,1.691046476364135742e+00,1.766576051712036133e+00,2.296819686889648438e+00
4.444444444444444642e+00,1.041455268859863281e+00,1.155069828033447266e+00,2.091984748840332031e+00,1.827188491821289062e+00,1.734734773635864258e+00,2.330308198928833008e+00
4.545454545454544970e+00,1.176009654998779297e+00,1.279134273529052734e+00,2.204035758972167969e+00,1.944582939147949219e+00,1.707278490066528320e+00,2.359184980392456055e+00
4.646464646464646187e+00,1.286006927490234375e+00,1.380555868148803711e+00,2.295636653900146484e+00,2.040551900863647461e+00,1.684833049774169922e+00,2.382791519165039062e+00
4.747474747474747403e+00,1.368376731872558594e+00,1.456504106521606445e+00,2.364230632781982422e+00,2.112416744232177734e+00,1.668025135993957520e+00,2.400469064712524414e+00
4.848484848484848619e+00,1.420049905776977539e+00,1.504148960113525391e+00,2.407262325286865234e+00,2.157500028610229492e+00,1.657480955123901367e+00,2.411558628082275391e+00
4.949494949494949836e+00,1.437956333160400391e+00,1.520659446716308594e+00,2.422173976898193359e+00,2.173122882843017578e+00,1.653827071189880371e+00,2.415401697158813477e+00
5.050505050505050164e+00,1.437956213951110840e+00,1.520659446716308594e+00,2.422173976898193359e+00,2.173122882843017578e+00,1.653827071189880371e+00,2.415401697158813477e+00
5.151515151515151381e+00,1.418520689010620117e+00,1.518161535263061523e+00,2.418623924255371094e+00,2.151416063308715820e+00,1.657643675804138184e+00,2.391050815582275391e+00
5.252525252525252597e+00,1.362435460090637207e+00,1.510953426361083984e+00,2.408379793167114258e+00,2.088776111602783203e+00,1.668657422065734863e+00,2.320781230926513672e+00
5.353535353535353813e+00,1.273032307624816895e+00,1.499463319778442383e+00,2.392050027847290039e+00,1.988924503326416016e+00,1.686213850975036621e+00,2.208767414093017578e+00
5.454545454545454142e+00,1.153642892837524414e+00,1.484119296073913574e+00,2.370243072509765625e+00,1.855582118034362793e+00,1.709658861160278320e+00,2.059183835983276367e+00
5.555555555555555358e+00,1.007599234580993652e+00,1.465349674224853516e+00,2.343567371368408203e+00,1.692470431327819824e+00,1.738337993621826172e+00,1.876204729080200195e+00
5.656565656565656575e+00,8.382329940795898438e-01,1.443582653999328613e+00,2.312632083892822266e+00,1.503310441970825195e+00,1.771597146987915039e+00,1.664004683494567871e+00
5.757575757575757791e+00,6.488758921623229980e-01,1.419246315956115723e+00,2.278045177459716797e+00,1.291823387145996094e+00,1.808781981468200684e+00,1.426758050918579102e+00
5.858585858585858119e+00,4.428597688674926758e-01,1.392768979072570801e+00,2.240415573120117188e+00,1.061730384826660156e+00,1.849238276481628418e+00,1.168639183044433594e+00
5.959595959595959336e+00,2.235167026519775391e-01,1.364578962326049805e+00,2.200351476669311523e+00,8.167527914047241211e-01,1.892311573028564453e+00,8.938227891921997070e-01
6.060606060606060552e+00,-5.822062492370605469e-03,1.335104107856750488e+00,2.158461809158325195e+00,5.606113672256469727e-01,1.937347769737243652e+00,6.064828634262084961e-01
6.161616161616161769e+00,-2.418240308761596680e-01,1.304772973060607910e+00,2.115355014801025391e+00,2.970279455184936523e-01,1.983692407608032227e+00,3.107943534851074219e-01
6.262626262626262097e+00,-4.811581373214721680e-01,1.274013638496398926e+00,2.071639776229858398e+00,2.972316741943359375e-02,2.030691385269165039e+00,1.093125343322753906e-02
6.363636363636363313e+00,-7.204920053482055664e-01,1.243254303932189941e+00,2.027924537658691406e+00,-2.375814914703369141e-01,2.077690362930297852e+00,-2.889316082000732422e-01
6.464646464646464530e+00,-9.564944505691528320e-01,1.212923049926757812e+00,1.984817624092102051e+00,-5.011651515960693359e-01,2.124035120010375977e+00,-5.846204757690429688e-01
6.565656565656565746e+00,-1.185832858085632324e+00,1.183448314666748047e+00,1.942927956581115723e+00,-7.573063373565673828e-01,2.169071197509765625e+00,-8.719601631164550781e-01
6.666666666666666963e+00,-1.405175805091857910e+00,1.155258297920227051e+00,1.902864098548889160e+00,-1.002283811569213867e+00,2.212144613265991211e+00,-1.146776437759399414e+00
6.767676767676767291e+00,-1.611192345619201660e+00,1.128780961036682129e+00,1.865234375000000000e+00,-1.232377290725708008e+00,2.252600908279418945e+00,-1.404895544052124023e+00
6.868686868686868507e+00,-1.800549149513244629e+00,1.104444622993469238e+00,1.830647468566894531e+00,-1.443864107131958008e+00,2.289785623550415039e+00,-1.642142057418823242e+00
6.969696969696969724e+00,-1.969915747642517090e+00,1.082677602767944336e+00,1.799711942672729492e+00,-1.633024454116821289e+00,2.323044776916503906e+00,-1.854342699050903320e+00
7.070707070707070940e+00,-2.115959167480468750e+00,1.063907980918884277e+00,1.773036599159240723e+00,-1.796135663986206055e+00,2.351724147796630859e+00,-2.037321329116821289e+00
7.171717171717171269e+00,-2.235348701477050781e+00,1.048563957214355469e+00,1.751229524612426758e+00,-1.929478168487548828e+00,2.375169038772583008e+00,-2.186905145645141602e+00
7.272727272727272485e+00,-2.324751377105712891e+00,1.037073850631713867e+00,1.734899759292602539e+00,-2.029329776763916016e+00,2.392725467681884766e+00,-2.298918485641479492e+00
7.373737373737373701e+00,-2.380836963653564453e+00,1.029865741729736328e+00,1.724655628204345703e+00,-2.091969490051269531e+00,2.403739213943481445e+00,-2.369188547134399414e+00
7.474747474747474918e+00,-2.400272369384765625e+00,1.027367830276489258e+00,1.721105575561523438e+00,-2.113676548004150391e+00,2.407555818557739258e+00,-2.393539190292358398e+00
7.575757575757575246e+00,-2.400272607803344727e+00,1.027367830276489258e+00,1.721105575561523438e+00,-2.113676548004150391e+00,2.407555818557739258e+00,-2.393539190292358398e+00
7.676767676767676463e+00,-2.388118505477905273e+00,1.022165536880493164e+00,1.712390542030334473e+00,-2.102973699569702148e+00,2.395364761352539062e+00,-2.381419181823730469e+00
7.777777777777777679e+00,-2.353044986724853516e+00,1.007153391838073730e+00,1.687241196632385254e+00,-2.072088003158569336e+00,2.360184907913208008e+00,-2.346444129943847656e+00
7.878787878787878896e+00,-2.297135829925537109e+00,9.832231402397155762e-01,1.647151827812194824e+00,-2.022854566574096680e+00,2.304106235504150391e+00,-2.290691852569580078e+00
7.979797979797979224e+00,-2.222474575042724609e+00,9.512665271759033203e-01,1.593616247177124023e+00,-1.957107901573181152e+00,2.229218244552612305e+00,-2.216239929199218750e+00
8.080808080808081328e+00,-2.131144762039184570e+00,9.121754169464111328e-01,1.528128623962402344e+00,-1.876682996749877930e+00,2.137611389160156250e+00,-2.125166416168212891e+00
8.181818181818181657e+00,-2.025229930877685547e+00,8.668416142463684082e-01,1.452182769775390625e+00,-1.783414602279663086e+00,2.031375169754028320e+00,-2.019548654556274414e+00
8.282828282828281985e+00,-1.906813740730285645e+00,8.161569237709045410e-01,1.367272973060607910e+00,-1.679137468338012695e+00,1.912599682807922363e+00,-1.901464700698852539e+00
8.383838383838384090e+00,-1.777979612350463867e+00,7.610131502151489258e-01,1.274893045425415039e+00,-1.565686225891113281e+00,1.783374547958374023e+00,-1.772991895675659180e+00
8.484848484848484418e+00,-1.640811324119567871e+00,7.023022174835205078e-01,1.176537036895751953e+00,-1.444896101951599121e+00,1.645790100097656250e+00,-1.636208415031433105e+00
8.585858585858586522e+00,-1.497392177581787109e+00,6.409157514572143555e-01,1.073698997497558594e+00,-1.318601369857788086e+00,1.501935720443725586e+00,-1.493191719055175781e+00
8.686868686868686851e+00,-1.349806070327758789e+00,5.777457952499389648e-01,9.678729176521301270e-01,-1.188637256622314453e+00,1.353901863098144531e+00,-1.346019506454467773e+00
8.787878787878787179e+00,-1.200136303901672363e+00,5.136839151382446289e-01,8.605527877807617188e-01,-1.056838274002075195e+00,1.203777909278869629e+00,-1.196769595146179199e+00
8.888888888888889284e+00,-1.050466656684875488e+00,4.496220946311950684e-01,7.532327771186828613e-01,-9.250394105911254883e-01,1.053654074668884277e+00,-1.047519803047180176e+00
8.989898989898989612e+00,-9.028803110122680664e-01,3.864520192146301270e-01,6.474065780639648438e-01,-7.950750589370727539e-01,9.056199789047241211e-01,-9.003474712371826172e-01
9.090909090909089940e+00,-7.594612836837768555e-01,3.250656127929687500e-01,5.445685386657714844e-01,-6.687804460525512695e-01,7.617657184600830078e-01,-7.573307752609252930e-01
9.191919191919192045e+00,-6.222931146621704102e-01,2.663546800613403320e-01,4.462126493453979492e-01,-5.479904413223266602e-01,6.241813898086547852e-01,-6.205474138259887695e-01
9.292929292929292373e+00,-4.934587478637695312e-01,2.112108469009399414e-01,3.538326025009155273e-01,-4.345390796661376953e-01,4.949561357498168945e-01,-4.920744895935058594e-01
9.393939393939394478e+00,-3.750426769256591797e-01,1.605262160301208496e-01,2.689228057861328125e-01,-3.302619457244873047e-01,3.761806488037109375e-01,-3.739905357360839844e-01
9.494949494949494806e+00,-2.691276073455810547e-01,1.151923537254333496e-01,1.929768323898315430e-01,-2.369934320449829102e-01,2.699441909790039062e-01,-2.683727741241455078e-01
9.595959595959595134e+00,-1.777980327606201172e-01,7.610136270523071289e-02,1.274893283843994141e-01,-1.565686464309692383e-01,1.783375740051269531e-01,-1.772992610931396484e-01
9.696969696969697239e+00,-1.031367778778076172e-01,4.414469003677368164e-02,7.395374774932861328e-02,-9.082198143005371094e-02,1.034495830535888672e-01,-1.028473377227783203e-01
9.797979797979797567e+00,-4.722762107849121094e-02,2.021443843841552734e-02,3.386437892913818359e-02,-4.158854484558105469e-02,4.737091064453125000e-02,-4.709529876708984375e-02
9.898989898989899672e+00,-1.215410232543945312e-02,5.202293395996093750e-03,8.715033531188964844e-03,-1.070284843444824219e-02,1.219105720520019531e-02,-1.212000846862792969e-02
1.000000000000000000e+01,0.000000000000000000e+00,0.000000000000000000e+00,0.000000000000000000e+00,0.000000000000000000e+00,0.000000000000000000e+00,0.000000000000000000e+00
